X: 4
T: Dance Of The Honeybees, The
C: Charlie Lennon
Z: Sean Perry
S: https://thesession.org/tunes/130#setting52651
R: hornpipe
M: 4/4
L: 1/8
K: Dmaj
|:AG|(3FEF EF DFAF|(3GAG FG E2EF|GFGA (3Bcd ed|cded cAGE|
(3FEF EF DFAF|(3GAG FG E2EF|GFGA (3Bcd ed| cAGE D2 :|
|:(3ABc|dAaA fAdA|(3Bcd AF DEFA|Beed Beed|(3Bcd ef ~ge fe|
dAaA fAdA|(3Bcd AF DEFA|Beed cded| cAGE D2:|

%-------------------- TUNE SEPARATOR --------------------%

